X:1074
T:All in the Douns.
M:3/4
L:1/4
Q:1/4=104
Z:Jack Campin * www.campin.me.uk * 2009
K:E Minor
Bef|(gf)e|(e       ^d/e/)f|B3|cBA|(GF)E|
(G/A/) ({B}A2)({Bc})|    B3 |Bef|(gf)e|(g/a/) {b}a2    |b3|bag|
d2 g| a     ({g}f2)      |({f}g3)|bag|(ag)f|(gf)e|(de)f|B3 |
GBc|(dc)B| Be f|(gf)b|B2e|f({e}^d2)|e3|]
<end>
<start>
